X:1
T:The Kettle Valley Line
M:4/4
L:1/4
K:C
 E/2| A, A, B, B,| C C/2 D3/2 C/2D/2| E/2 C3/2 D B,| A,2 z z/2| E/2|\
 A, A, B, B,| C C/2 D3/2 C/2D/2| E/2 C3/2 D B,| A,2 z E/2| E A A B|\
 A3/2 E/2 E E/2E/2| E A A B| A3/2 D/2 D C/2D/2| D D D D| E3/2 C/2 A, C/2E/2|\
 E/2 C3/2 D B,| A,3 z/2||
